Papirus/24x24/devices/drive-harddisk-ieee1394.svg

<?xml version="1.0" encoding="UTF-8" standalone="no"?>
<svg xmlns="http://www.w3.org/2000/svg" height="24" width="24" version="1">
 <rect transform="matrix(0,-1,-1,0,0,0)" rx="1" ry="1" height="16" width="20" y="-20" x="-22" fill="#848484"/>
 <path opacity=".2" d="m4 21v0.5c0 0.554 0.446 1 1 1h14c0.554 0 1-0.446 1-1v-0.5c0 0.554-0.446 1-1 1h-14c-0.554 0-1-0.446-1-1z"/>
 <path opacity=".1" fill="#fff" d="m5 2c-0.554 0-1 0.446-1 1v0.5c0-0.554 0.446-1 1-1h14c0.554 0 1 0.446 1 1v-0.5c0-0.554-0.446-1-1-1h-14z"/>
 <path style="opacity:0.3;fill:#000000;fill-opacity:1;enable-background:new" d="m 8.4648442,5.8438 -2.121094,2.1211 0.707031,0.707 2.121094,-2.1211 -0.707031,-0.707 z m 7.0703118,0 -2.121094,2.1211 2.121094,2.1211 L 17.65625,7.9649 15.535156,5.8438 Z M 9.8789062,7.2579 7.7578122,9.379 8.4648442,10.086 10.585938,7.9649 9.8789062,7.2579 Z M 12,9 c -1.38071,0 -2.4999998,1.1194 -2.4999998,2.5 0,1.3808 1.1192898,2.5 2.4999998,2.5 1.38071,0 2.5,-1.1193 2.5,-2.5 C 14.5,10.1193 13.38071,9 12,9 Z m 0,1 c 0.82843,0 1.5,0.6716 1.5,1.5 0,0.8284 -0.67157,1.5 -1.5,1.5 -0.82843,0 -1.5,-0.6715 -1.5,-1.5 0,-0.8283 0.67157,-1.5 1.5,-1.5 z m -1.5,5 0,1 3,0 0,-1 -3,0 z m 0,2 0,1 3,0 0,-1 -3,0 z"/>
</svg>

<svg xmlns="http://www.w3.org/2000/svg" width="24" height="24" version="1">
 <rect style="opacity:0.2" width="20" height="16" x="-22.5" y="-20" rx="1" ry="1" transform="matrix(0,-1,-1,0,0,0)"/>
 <rect style="fill:#8e8e8e" width="20" height="16" x="-22" y="-20" rx="1" ry="1" transform="matrix(0,-1,-1,0,0,0)"/>
 <path style="opacity:0.2;fill:#ffffff" d="M 5,2 C 4.446,2 4,2.446 4,3 V 3.5 C 4,2.946 4.446,2.5 5,2.5 H 19 C 19.554,2.5 20,2.946 20,3.5 V 3 C 20,2.446 19.554,2 19,2 Z"/>
 <g style="opacity:0.5">
  <rect width="4" height="1" x="10" y="16"/>
  <rect width="4" height="1" x="10" y="18"/>
  <path d="M 12,9 A 3,3 0 0 0 9,12 3,3 0 0 0 12,15 3,3 0 0 0 15,12 3,3 0 0 0 12,9 Z M 12,10 A 2,2 0 0 1 14,12 2,2 0 0 1 12,14 2,2 0 0 1 10,12 2,2 0 0 1 12,10 Z"/>
  <rect width="4" height="1" x="-2" y="-13" transform="rotate(135)"/>
  <rect width="4" height="1" x="-2" y="-11" transform="rotate(135)"/>
  <rect width="4" height="3" x="-19" y="4" transform="rotate(-135)"/>
 </g>
</svg>
